X:1
T:Row Me Over the Tide
T:Row Me Over the Tide
T:Edward C. Avis
T:Edward C. Avis, 1889
T:Public Domain Courtesy of the Cyber Hymnal™
C:Edward C. Avis
Z:Public Domain
Z:Courtesy of the Cyber Hymnal™
%%score ( 1 2 ) ( 3 4 )
L:1/8
Q:1/4=75
M:6/8
K:Eb
V:1 treble 
V:2 treble 
V:3 bass 
V:4 bass 
V:1
"^Thoughtfully" [EG]>[EG][EG] [EG][EA][EG] | [EG][DF]>[^C=E] [DF]3 | [DF]>[DF][DF] [DF][DG]>[DF] | %3
w: 1.~Two lit- tle child- ren were|stroll- ing one day,|Down by a clear ri- ver|
w: 2.~“We are so poor, and so|hun- gry and cold,|We have no place to a-|
w: 3.~“Dear ma- ma told lit- tle|Char- lie one day,|Je- sus would care for her|
w: 4.~Two lit- tle fac- es no|more we shall see,|Sweet- ly they sleep side by|
 E6 | [EG][EG][EG] [EG]>[EA][EG] | [EG][DF]>[^C=E] [DF]3 | [DF]2 [DF] [DF][DG]>[DF] | E6 || %8
w: side;|O- ne came up to a|boat- man and said,|“Row me o- ver the|tide.”|
w: bide;|Pa- pa and ma- ma and|Nel- lie are gone;|Row us o- ver the|tide.”|
w: child;|But we are tir- ed of|wait- ing so long,|Row us o- ver the|tide.”|
w: side;|Je- sus, so full of com-|pas- sion and love,|Rowed them o- ver the|tide.|
"^Refrain" [Ac]2 [Ac] [ce][Bd]>[Ac] | ([GB]3 [EG]3) | [DB]2 [DF] [DF][GB]>[FA] | [EG]6 | %12
w: ||||
w: Row me o- ver the|tide, *|Row me o- ver the|tide,|
w: ||||
w: ||||
 [Ac]>[Ac][Ac] [ce][Bd][Ac] | [Ac][GB]>[^F=A] [GB]3 | [DB]2 [DF] [DF][DG]>[DF] | E6 |] %16
w: ||||
w: Loved ones are wait- ing for|me on the strand,|Row me o- ver the|tide.|
w: ||||
w: ||||
V:2
 x6 | x6 | x6 | E6 | x6 | x6 | x6 | E6 || x6 | x6 | x6 | x6 | x6 | x6 | x6 | E6 |] %16
V:3
 [E,B,]>[E,B,][E,B,] [E,B,][E,C][E,B,] | [B,,B,][B,,B,]>[B,,B,] [B,,B,]3 | %2
 [B,,B,]>[B,,B,][B,,B,] [B,,B,][B,,B,]>[B,,A,] | [E,G,]6 | [E,B,][E,B,][E,B,] [E,B,]>[E,C][E,B,] | %5
 [B,,B,][B,,B,]>[B,,B,] [B,,B,]3 | [B,,B,]2 [B,,B,] [B,,B,][B,,B,]>[B,,A,] | [E,G,]6 || %8
 [A,E]2 [A,E] [A,E][A,E]>[A,E] | ([E,E]3 [E,B,]3) | [B,,B,]2 [B,,B,] [B,,B,][B,,B,]>[B,,B,] | %11
 [E,B,]6 | A,>A,A, A,A,A, | [E,E][E,E]>[E,E] [E,B,]3 | [B,,A,]2 [B,,A,] [B,,A,][B,,A,]>[B,,A,] | %15
 [E,G,]6 |] %16
V:4
 x6 | x6 | x6 | x6 | x6 | x6 | x6 | x6 || x6 | x6 | x6 | x6 | A,>A,A, A,A,A, | x6 | x6 | x6 |] %16

